!!!OTL: Der grausame Bruder Es zog ein Kupferschmied wohl ueber den Rhein,
!!!ARE: Europa, Mitteleuropa, Deutschland / France, Lothringen,
!!    Kr. Bolchen, Lauterfangen
!!!YOR: 3, S. 258
!!    1914 aufgezeichnet
!!!SCT: Q0068J
!!!YEM: Copyright 1995, estate of Helmut Schaffrath.
**kern
*ICvox
*Ivox
*M2/4
*k[f#]
*G:
{8d
=1
8d
8g
8g
8g
=2
4.a
8b
=3
8b
8dd
8cc
8b
=4
4a}
{8a
8b
=5
4cc
8cc
8a
=6
4b
8b
8a
=7
4g
4f#
=8
4.e}
{8e
=9
4a
8b
8a
=10
4g
8cc
8a
=11
4b
4a
=12
4g
8r}
==
!!!AGN: Ballade, Schwangerschaft, Moral, Mord
!!!ONB: ESAC (Essen Associative Code) Database: BALLADE
!!!AMT: simple duple
!!!AIN: vox
!!!EED: Helmut Schaffrath
!!!EEV: 1.0
*-
